img/toolbar/exclame.svg

<?xml version="1.0" encoding="UTF-8" standalone="no"?>
<svg
   height="24"
   width="24"
   version="1.1"
   id="svg5"
   xmlns:xlink="http://www.w3.org/1999/xlink"
   xmlns="http://www.w3.org/2000/svg"
   xmlns:svg="http://www.w3.org/2000/svg">
  <defs
     id="defs5">
    <radialGradient
       xlink:href="#a"
       id="radialGradient9"
       cx="12"
       cy="9"
       fx="12"
       fy="9"
       r="11.999997"
       gradientUnits="userSpaceOnUse" />
    <linearGradient
       xlink:href="#b"
       id="linearGradient10"
       x1="21"
       y1="22"
       x2="3"
       y2="3"
       gradientUnits="userSpaceOnUse" />
  </defs>
  <radialGradient
     id="a"
     cx="11.568233"
     cy="3.467792"
     gradientTransform="matrix(-1.394357,0,0,-0.96218181,-11.99525,9.816184)"
     gradientUnits="userSpaceOnUse"
     r="10.087649">
    <stop
       offset="0"
       stop-color="#93edb4"
       id="stop1"
       style="stop-color:#fff3b8;stop-opacity:1;" />
    <stop
       offset="1"
       stop-color="#31a181"
       id="stop2"
       style="stop-color:#ffbe35;stop-opacity:1;" />
  </radialGradient>
  <linearGradient
     id="b"
     gradientUnits="userSpaceOnUse"
     x1="13.90909"
     x2="13.670454"
     y1="22.499211"
     y2="1.857166"
     gradientTransform="translate(-40)">
    <stop
       offset="0"
       stop-color="#2d6857"
       id="stop3"
       style="stop-color:#684d2d;stop-opacity:1;" />
    <stop
       offset="1"
       stop-color="#38b792"
       id="stop4"
       style="stop-color:#b78d38;stop-opacity:1;" />
  </linearGradient>
  <path
     id="rect7"
     style="fill:url(#radialGradient9);stroke:url(#linearGradient10);stroke-width:0.999995;stroke-linecap:round;stroke-dasharray:none;stroke-opacity:1"
     d="M 7.236328,0.5 0.5,7.2363281 V 16.763672 L 7.236328,23.5 h 9.527344 L 23.5,16.763672 V 7.2363281 L 16.763672,0.5 Z" />
  <path
     style="fill:#ffffff;fill-opacity:1;stroke:#b78d38;stroke-width:1;stroke-linecap:round;stroke-dasharray:none;stroke-opacity:1"
     d="M 10.559258,15.5 9,5.6799748 C 8.720975,3.8199618 10.435997,2.472973 11.97444,2.500658 13.541716,2.528858 15.383465,3.8972878 15,5.6799748 L 13.389623,15.5 Z"
     id="path6" />
  <ellipse
     style="fill:#ffffff;fill-opacity:1;fill-rule:evenodd;stroke:#b78d38;stroke-width:0.999998;stroke-opacity:1"
     id="path7-7"
     cx="11.996421"
     cy="18.820889"
     rx="2.7500014"
     ry="2.75" />
</svg>

<svg height="24" width="24" xmlns="http://www.w3.org/2000/svg" xmlns:xlink="http://www.w3.org/1999/xlink">
  <radialGradient id="a" cx="12" cy="9" gradientTransform="matrix(-1.394357 0 0 -.96218181 -11.995 9.816)" gradientUnits="userSpaceOnUse" r="12">
    <stop offset="0" stop-color="#fff3b8"/>
    <stop offset="1" stop-color="#ffbe35"/>
  </radialGradient>
  <linearGradient id="b" gradientUnits="userSpaceOnUse" x1="-19" x2="-37" y1="22" y2="3">
    <stop offset="0" stop-color="#684d2d"/>
    <stop offset="1" stop-color="#b78d38"/>
  </linearGradient>
  <path d="m7.24.5-6.74 6.74v9.52l6.74 6.74h9.53l6.73-6.74v-9.52l-6.74-6.74z" fill="url(#a)" stroke="url(#b)" stroke-linecap="round" stroke-width=".999995"/>
  <g fill="#fff" stroke="#b78d38">
    <path d="m10.56 15.5-1.56-9.82c-.28-1.86 1.44-3.21 2.97-3.18 1.57.03 3.41 1.4 3.03 3.18l-1.61 9.82z" stroke-linecap="round"/>
    <ellipse cx="11.996" cy="18.821" fill-rule="evenodd" rx="2.75" ry="2.75" stroke-width=".999998"/>
  </g>
</svg>
